usr/share/icons/biglinux-icons-material/24/actions/object-columns.svg

<svg xmlns="http://www.w3.org/2000/svg" viewBox="0 0 24 24"><path d="M4 4v16h5V4H4zm6 0v16h5V4h-5zm6 0v16h5V4h-5zM5 5h3v14H5V5zm6 0h3v14h-3V5zm6 0h3v14h-3V5z" style="fill:currentColor;fill-opacity:1;stroke:none;color:#dedede"/></svg>

<svg xmlns="http://www.w3.org/2000/svg" viewBox="0 0 24 24">
  <defs id="defs3051">
    <style type="text/css" id="current-color-scheme">
      .ColorScheme-Text {
        color:#dedede;
      }
      </style>
  </defs>
 <path style="fill:currentColor;fill-opacity:1;stroke:none" 
     d="M 4 4 L 4 20 L 9 20 L 9 4 L 4 4 z M 10 4 L 10 20 L 15 20 L 15 4 L 10 4 z M 16 4 L 16 20 L 21 20 L 21 4 L 16 4 z M 5 5 L 8 5 L 8 19 L 5 19 L 5 5 z M 11 5 L 14 5 L 14 19 L 11 19 L 11 5 z M 17 5 L 20 5 L 20 19 L 17 19 L 17 5 z "
     class="ColorScheme-Text"
     />
</svg>
